X: 27954
T: Mourne Mountains, The
R: reel
M: 4/4
K: Gmajor
BGGG GEDG|EDEG AEGE|DEGA BG(3B^cd|eAdc Bg2d|
(3BAGAF GEDG|EDEG AEGE|DEGA BG(3B^cd|1 eAdc BGGA:|2 eAdc BGBd||
|:g2gf gedB|eaag a2ga|bbbg agab|gedc BG(3B^cd|
g2gf gedB|eaag a2ga|bggg agab|1 gedc BGBd:|2 gedc BGGA||

